dist/img/cart.svg

<svg width="137" height="88" viewBox="0 0 137 88" fill="none" xmlns="http://www.w3.org/2000/svg">
<path d="M46.2953 14.186H24.7273" stroke="#3A3E46" stroke-width="4" stroke-miterlimit="10" stroke-linecap="round"/>
<path d="M42.8444 28.3939H13.1884" stroke="#3A3E46" stroke-width="4" stroke-miterlimit="10" stroke-linecap="round"/>
<path d="M39.744 42.6018H2" stroke="#3A3E46" stroke-width="4" stroke-miterlimit="10" stroke-linecap="round"/>
<path d="M43.8959 2H50.7707L64.008 56.8097H119.276C122.565 56.8097 125.396 54.5181 126.097 51.3099L134.158 14.1859H53.6824" stroke="#3A3E46" stroke-width="4" stroke-miterlimit="10" stroke-linecap="round"/>
<path d="M57.0524 28.3938H131.165" stroke="#3A3E46" stroke-width="4" stroke-miterlimit="10" stroke-linecap="round"/>
<path d="M60.6111 42.6018H127.957" stroke="#3A3E46" stroke-width="4" stroke-miterlimit="10" stroke-linecap="round"/>
<path d="M81.7477 56.8097L71.449 14.1859" stroke="#3A3E46" stroke-width="4" stroke-miterlimit="10" stroke-linecap="round"/>
<path d="M99.4605 56.8097L89.1617 14.1859" stroke="#3A3E46" stroke-width="4" stroke-miterlimit="10" stroke-linecap="round"/>
<path d="M117.2 56.8097L106.901 14.1859" stroke="#3A3E46" stroke-width="4" stroke-miterlimit="10" stroke-linecap="round"/>
<path d="M64.008 56.8097L58.5891 70.748H119.195" stroke="#3A3E46" stroke-width="4" stroke-miterlimit="10" stroke-linecap="round"/>
<path d="M58.5891 85.2525C62.5944 85.2525 65.8413 82.0056 65.8413 78.0003C65.8413 73.995 62.5944 70.748 58.5891 70.748C54.5838 70.748 51.3369 73.995 51.3369 78.0003C51.3369 82.0056 54.5838 85.2525 58.5891 85.2525Z" stroke="#3A3E46" stroke-width="4" stroke-miterlimit="10" stroke-linecap="round"/>
<path d="M119.195 85.2525C123.2 85.2525 126.447 82.0056 126.447 78.0003C126.447 73.995 123.2 70.748 119.195 70.748C115.19 70.748 111.943 73.995 111.943 78.0003C111.943 82.0056 115.19 85.2525 119.195 85.2525Z" stroke="#3A3E46" stroke-width="4" stroke-miterlimit="10" stroke-linecap="round"/>
</svg>

<svg width="137" height="88" fill="none" xmlns="http://www.w3.org/2000/svg"><path d="M46.295 14.186H24.727m18.117 14.208H13.188m26.556 14.208H2M43.896 2h6.875l13.237 54.81h55.268a6.981 6.981 0 006.821-5.5l8.061-37.124H53.682m3.37 14.208h74.113M60.611 42.602h67.346M81.748 56.81L71.449 14.186M99.46 56.81L89.162 14.186M117.2 56.81l-10.299-42.624M64.008 56.81l-5.419 13.938h60.606" stroke="#3A3E46" stroke-width="4" stroke-miterlimit="10" stroke-linecap="round"/><path d="M58.59 85.252a7.252 7.252 0 100-14.504 7.252 7.252 0 000 14.504zm60.605 0a7.252 7.252 0 100-14.504 7.252 7.252 0 000 14.504z" stroke="#3A3E46" stroke-width="4" stroke-miterlimit="10" stroke-linecap="round"/></svg>
